icon-svg/sliding-window-door-open.svg

<?xml version="1.0" encoding="UTF-8"?>
<svg width="24px" height="24px" viewBox="0 0 24 24" version="1.1" fill="#44739e" xmlns="http://www.w3.org/2000/svg" xmlns:xlink="http://www.w3.org/1999/xlink">
            <path d="M 2.9,2.48 3.6,19 19.8,22.1 v 0 L 20.42,1.86 Z M 4.2325,2.7560937 4.8764062,18.259219 9.08,18.974844 V 19.11 L 4.69,18.35 4.09,2.76 Z M 19.43,21.76 3.83,18.76 3.17,2.76 H 3.33 L 4,18.68 v 0 l 6.73,1.26 8.73,1.63 z m 0,-0.29 -8.58,-1.61 0.09552,-0.06077 L 4.28,18.54 3.6,2.78 h 0.27 l 0.66,15.65 4.55,0.8 v 0.05 l 2.11,0.4 v 0.13 l 8.08,1.48 0.54,-18.69 -8.74,0.23 v 0 L 8.84,2.9124742 9.07,18.83 5.0474302,18.168084 4.4,2.75 20,2.21 Z M 11.17,19.06 9.77,18.83 9.485625,3.56125 11.07,3.53 v 0 L 11.13,11 v 8.1 0 0.35 L 9.33,19.13 9.08,3.57125 9.2634375,3.5634375 9.54,19 11.19,19.27 Z M 16.574063,3.4421875 16.3,19.86 h 0.27 L 16.984375,3.1646875 17.197812,3.156875 16.8,19.94 h 0.14 L 17.442188,3.146875 19.54,3.1 v 0 L 19.05,20.53 11.9,19.28 v -16 h 0.19 l 0.01563,0.22625 z M 19.06,20.69 v 0.19 L 11.48,19.52 11.38,3.23 h 0.22 l 0.09,16.14 z M 11.08,3.51 v 0 L 11.13,11 Z m 0,0 v 0 L 11.13,11 Z M 3.98,18.68 H 3.97 v 0 z M 20.9,2.03 20.69,1.95 l -0.62,19.8 0.19,-0.28 z m 0,-0.01 -0.21,-0.08 -0.62,19.79 0.19,-0.27 z"></path>

</svg>

<svg xmlns="http://www.w3.org/2000/svg" fill="#44739e" viewBox="0 0 24 24"><path d="M2.9 2.48 3.6 19l16.2 3.1.62-20.24Zm1.3325.276.644 15.5032 4.2035.7156v.1352l-4.39-.76-.6-15.59ZM19.43 21.76l-15.6-3-.66-16h.16L4 18.68l6.73 1.26 8.73 1.63zm0-.29-8.58-1.61.0955-.0608L4.28 18.54 3.6 2.78h.27l.66 15.65 4.55.8v.05l2.11.4v.13l8.08 1.48.54-18.69-8.74.23-2.23.0825.23 15.9175-4.0226-.662L4.4 2.75 20 2.21Zm-8.26-2.41-1.4-.23-.2844-15.2687L11.07 3.53l.06 7.47v8.45l-1.8-.32-.25-15.5587.1834-.0079L9.54 19l1.65.27Zm5.404-15.6178L16.3 19.86h.27l.4144-16.6953.2134-.0078L16.8 19.94h.14l.5022-16.7931L19.54 3.1l-.49 17.43-7.15-1.25v-16h.19l.0156.2263zM19.06 20.69v.19l-7.58-1.36-.1-16.29h.22l.09 16.14zM11.08 3.51l.05 7.49Zm0 0 .05 7.49Zm-7.1 15.17h-.01zM20.9 2.03l-.21-.08-.62 19.8.19-.28zm0-.01-.21-.08-.62 19.79.19-.27z"/></svg>
